assets/img/Logo_cb_rose.svg

<?xml version="1.0" encoding="UTF-8" standalone="no"?>
<!-- Created with Vectornator (http://vectornator.io/) -->

<svg
   height="555.27948"
   stroke-miterlimit="10"
   style="clip-rule:evenodd;fill-rule:nonzero;stroke-linecap:round;stroke-linejoin:round"
   version="1.1"
   viewBox="0 0 510.41199 555.2795"
   width="510.41199"
   xml:space="preserve"
   id="svg14"
   sodipodi:docname="Logo_cb_rose.svg"
   inkscape:export-filename="/home/varoquan/Projects/research/grants/2023-ANR-SECRETS/website/assets/img/avatar-icon.png"
   inkscape:export-xdpi="180"
   inkscape:export-ydpi="180"
   inkscape:version="1.1.2 (0a00cf5339, 2022-02-04)"
   xmlns:inkscape="http://www.inkscape.org/namespaces/inkscape"
   xmlns:sodipodi="http://sodipodi.sourceforge.net/DTD/sodipodi-0.dtd"
   xmlns="http://www.w3.org/2000/svg"
   xmlns:svg="http://www.w3.org/2000/svg"
   xmlns:vectornator="http://vectornator.io"><sodipodi:namedview
   id="namedview16"
   pagecolor="#ffffff"
   bordercolor="#666666"
   borderopacity="1.0"
   inkscape:pageshadow="2"
   inkscape:pageopacity="0.0"
   inkscape:pagecheckerboard="0"
   showgrid="false"
   inkscape:zoom="1.4663643"
   inkscape:cx="-49.78299"
   inkscape:cy="273.80645"
   inkscape:window-width="3770"
   inkscape:window-height="2089"
   inkscape:window-x="70"
   inkscape:window-y="34"
   inkscape:window-maximized="1"
   inkscape:current-layer="svg14"
   fit-margin-top="0"
   fit-margin-left="0"
   fit-margin-right="0"
   fit-margin-bottom="0" />
<defs
   id="defs2" />
<g
   id="Calque-2"
   vectornator:layerName="Calque 2"
   transform="translate(-177.138,-23.9812)">
<path
   d="m 432.344,24.0312 c -18.165,1e-4 -36.328,3.9983 -50.188,12 L 227.375,125.406 c -27.719,16.004 -50.187,54.9 -50.187,86.906 v 178.719 c 0,8.082 1.443,16.611 4.031,25.094 7.202,23.606 23.38,46.759 42.5,59.406 -2.538,-9.74 -4,-19.44 -4,-28.719 V 359.75 c 0,-43.759 30.728,-96.964 68.625,-118.844 l 75.375,-43.531 c 37.897,-21.88 99.353,-21.88 137.25,0 l 75.375,43.531 c 37.897,21.88 68.625,75.085 68.625,118.844 v 87.062 c 0,9.24 -1.452,18.896 -3.969,28.594 25.966,-17.208 46.5,-53.825 46.5,-84.375 V 212.312 c 0,-32.006 -22.469,-70.902 -50.188,-86.906 L 482.531,36.0312 c -13.859,-8.0017 -32.022,-12 -50.187,-12 z"
   fill="#370316"
   fill-rule="nonzero"
   opacity="1"
   stroke="#154c2b"
   stroke-linecap="butt"
   stroke-linejoin="round"
   stroke-width="0.1"
   id="path4" />
<path
   d="m 432.344,180.969 c -24.839,0 -49.677,5.466 -68.625,16.406 l -75.375,43.531 c -37.897,21.88 -68.625,75.085 -68.625,118.844 v 87.062 c 0,4.64 0.38,9.386 1.062,14.188 0.683,4.802 1.669,9.661 2.938,14.531 1.22,0.808 2.412,1.72 3.656,2.438 l 1.531,0.875 c 11.857,-30.562 34.018,-59.355 59.438,-74.032 l 75.375,-43.5 c 37.897,-21.879 99.353,-21.879 137.25,0 l 75.375,43.5 c 25.42,14.677 47.58,43.47 59.437,74.032 l 1.531,-0.875 c 1.263,-0.729 2.449,-1.742 3.688,-2.563 2.517,-9.698 3.969,-19.354 3.969,-28.594 V 359.75 c 0,-43.759 -30.728,-96.964 -68.625,-118.844 l -75.375,-43.531 c -18.949,-10.94 -43.787,-16.406 -68.625,-16.406 z"
   fill="#7d193f"
   fill-rule="nonzero"
   opacity="1"
   stroke="#31773e"
   stroke-linecap="butt"
   stroke-linejoin="round"
   stroke-width="0.1"
   id="path6" />
<path
   d="m 432.344,344.906 c -12.418,0 -24.837,1.367 -36.52,4.101 -11.684,2.734 -22.631,6.836 -32.105,12.305 l -37.688,21.75 -37.687,21.75 c -12.71,7.339 -24.605,18.206 -34.805,31.059 -10.2,12.853 -18.704,27.692 -24.633,42.973 l 76.625,44.234 76.625,44.234 c 11.645,6.724 26.305,10.581 41.45,11.615 15.145,1.033 30.775,-0.758 44.363,-5.333 2.584,-0.87 5.117,-1.801 7.558,-2.834 2.441,-1.034 4.79,-2.169 7.004,-3.448 l 76.625,-44.234 76.625,-44.234 c -5.928,-15.281 -14.433,-30.12 -24.632,-42.973 -10.2,-12.853 -22.095,-23.72 -34.805,-31.059 l -37.688,-21.75 -37.687,-21.75 c -9.474,-5.469 -20.422,-9.571 -32.105,-12.305 -11.684,-2.734 -24.103,-4.101 -36.52,-4.101 z"
   fill="#d26e93"
   fill-rule="nonzero"
   opacity="1"
   stroke="#4ebc62"
   stroke-linecap="butt"
   stroke-linejoin="round"
   stroke-width="0.1"
   id="path8" />
</g>
<g
   id="Calque-1"
   vectornator:layerName="Calque 1"
   transform="translate(-177.138,-23.9812)">
<path
   d="m 430.094,40.0625 c -12.526,0 -22.688,10.1304 -22.688,22.6563 0,10.1076 6.676,18.5684 15.813,21.5 L 422.844,180 l -18.813,-30.219 -55.5,0.063 -29.281,-14.156 c 0.138,-1.013 0.281,-2.012 0.281,-3.063 0,-12.526 -10.161,-22.656 -22.687,-22.656 -12.526,0 -22.688,10.13 -22.688,22.656 0,12.526 10.162,22.687 22.688,22.687 6.566,0 12.45,-2.819 16.594,-7.281 l 31.124,15.219 51.75,0.688 26.157,40.437 -0.688,305.937 0.344,0.063 c -9.107,2.941 -15.75,11.382 -15.75,21.469 0,12.526 10.162,22.687 22.687,22.687 12.526,0 22.688,-10.161 22.688,-22.687 0,-10.103 -6.651,-18.542 -15.781,-21.469 l 0.187,-285.781 33.063,-36.563 75.312,-0.812 28.688,-30.313 c 3.088,1.575 6.515,2.563 10.219,2.563 12.525,0 22.687,-10.162 22.687,-22.688 0,-12.526 -10.162,-22.656 -22.687,-22.656 -12.526,0 -22.688,10.13 -22.688,22.656 0,3.862 1.046,7.441 2.75,10.625 l -25.469,26.406 -22.781,-0.187 24.469,-51.125 c 6.186,-0.089 11.187,-5.074 11.187,-11.281 0,-6.263 -5.081,-11.344 -11.344,-11.344 -6.262,0 -11.343,5.081 -11.343,11.344 0,1.987 0.663,3.754 1.562,5.375 L 519.5,138.875 479.531,119.719 c 0.043,-0.4 0.25,-0.745 0.25,-1.157 0,-6.262 -5.081,-11.343 -11.343,-11.343 -6.263,0 -11.344,5.081 -11.344,11.343 0,6.263 5.081,11.313 11.344,11.313 1.63,0 3.16,-0.352 4.562,-0.969 l 41.469,19.563 -10.219,25.031 -41.438,0.938 -26.374,29.843 0.187,-119.9372 c 9.332,-2.8139 16.156,-11.3783 16.156,-21.625 0,-12.5259 -10.162,-22.6563 -22.687,-22.6563 z m 0,12.1875 c 6.263,0 11.344,5.0808 11.344,11.3438 0,6.2629 -5.081,11.3125 -11.344,11.3124 -6.263,0 -11.344,-5.0495 -11.344,-11.3124 0,-6.263 5.081,-11.3438 11.344,-11.3438 z m -133.25,69.906 c 6.263,0 11.343,5.081 11.344,11.344 0,6.263 -5.081,11.312 -11.344,11.312 -6.263,0 -11.344,-5.049 -11.344,-11.312 0,-6.263 5.081,-11.344 11.344,-11.344 z m 286.594,4.156 c 6.262,0 11.343,5.081 11.343,11.344 0,6.263 -5.081,11.313 -11.343,11.313 -6.263,0 -11.344,-5.05 -11.344,-11.313 0,-6.263 5.081,-11.344 11.344,-11.344 z M 429.062,521.375 c 6.263,0 11.344,5.081 11.344,11.344 0,6.263 -5.081,11.312 -11.344,11.312 -6.262,0 -11.343,-5.049 -11.343,-11.312 0,-6.263 5.081,-11.344 11.343,-11.344 z m -168.781,-356.437 -36.75,26.843 c -3.872,-3.07 -8.703,-5 -14.031,-5 -12.526,0 -22.688,10.131 -22.688,22.657 0,12.525 10.162,22.687 22.688,22.687 12.526,0 22.688,-10.162 22.688,-22.687 0,-2.224 -0.435,-4.315 -1.032,-6.344 l 31.532,-22.813 57.906,18.375 14.5,20.656 -33.469,20.594 c -1.682,-0.987 -3.534,-1.687 -5.625,-1.687 -6.263,0 -11.344,5.081 -11.344,11.343 0,6.263 5.081,11.313 11.344,11.313 6.218,0 11.24,-4.987 11.312,-11.187 l 33.782,-19.876 15.5,23.157 -0.344,38.25 -112.906,-7.719 -32.656,46.156 c -2.09,-0.633 -4.266,-1.062 -6.563,-1.062 -12.526,0 -22.687,10.13 -22.687,22.656 -10e-4,12.526 10.161,22.687 22.687,22.688 12.526,-10e-4 22.688,-10.162 22.687,-22.688 10e-4,-5.137 -1.776,-9.828 -4.656,-13.625 l 27.813,-39.375 35.937,2.219 -27.718,55.719 c -0.022,-10e-4 -0.042,-10e-4 -0.063,0 -6.263,0 -11.344,5.08 -11.344,11.343 0,6.263 5.081,11.313 11.344,11.313 6.263,0 11.344,-5.05 11.344,-11.313 0,-2.501 -1.003,-4.687 -2.375,-6.562 l 7.468,-13.969 32.782,14.25 c 0.681,5.608 5.267,10 11.062,10 6.263,0 11.344,-5.05 11.344,-11.312 0,-6.263 -5.081,-11.344 -11.344,-11.344 -2.447,0 -4.583,0.931 -6.437,2.25 l -31.938,-14 17.438,-34.032 59.312,3.188 0.313,208.062 -25.282,-21.656 c 1.438,-2.978 2.313,-6.286 2.313,-9.812 0,-12.526 -10.162,-22.656 -22.687,-22.656 -12.526,0 -22.688,10.13 -22.688,22.656 0,12.526 10.162,22.687 22.688,22.687 3.976,0 7.655,-1.108 10.906,-2.906 l 48.344,41.656 -0.094,-105.156 -0.188,-190.437 -41.437,-61.563 z M 209.5,198.125 c 6.263,0 11.344,5.081 11.344,11.344 0,6.263 -5.081,11.312 -11.344,11.312 -6.263,0 -11.344,-5.049 -11.344,-11.312 0,-6.263 5.081,-11.344 11.344,-11.344 z m -5.375,141.813 c 6.263,0 11.344,5.08 11.344,11.343 0,6.263 -5.081,11.313 -11.344,11.313 -6.263,0 -11.344,-5.05 -11.344,-11.313 0,-6.263 5.081,-11.344 11.344,-11.343 z m 107.313,131.343 c 6.262,0 11.343,5.081 11.343,11.344 0,6.263 -5.081,11.312 -11.343,11.313 -6.263,0 -11.344,-5.05 -11.344,-11.313 0,-6.263 5.081,-11.344 11.344,-11.344 z m 301.843,-256.093 -67,0.187 -45.593,58.344 -0.219,268.875 L 548.375,506 c 3.722,2.672 8.258,4.281 13.187,4.281 12.527,0 22.688,-10.161 22.688,-22.687 0,-12.527 -10.161,-22.657 -22.688,-22.656 -12.526,0 -22.687,10.129 -22.687,22.656 0,2.8 0.572,5.461 1.5,7.937 l -26.687,20.094 1.124,-103.25 43.563,5.375 c 2.038,3.015 5.3,5.125 9.219,5.125 6.263,0 11.344,-5.049 11.344,-11.313 0,-6.263 -5.081,-11.343 -11.344,-11.343 -4.036,0 -7.395,2.23 -9.406,5.406 l -43.813,-5.344 0.313,-31.062 62.093,-11.094 c 3.732,7.41 11.326,12.562 20.188,12.563 12.526,-10e-4 22.656,-10.162 22.656,-22.688 0,-12.526 -10.13,-22.688 -22.656,-22.688 -10.902,0 -19.978,7.717 -22.157,17.969 l 0.157,-0.031 c -0.01,0.05 0.009,0.106 0,0.156 l -60.407,10.75 -0.406,-75.031 38.532,-50.437 h 54.062 l 33.094,44.406 c -1.896,3.31 -3.063,7.096 -3.063,11.187 0,12.527 10.161,22.688 22.688,22.688 12.526,0 22.687,-10.161 22.687,-22.688 0,-12.526 -10.161,-22.656 -22.687,-22.656 -3.527,0 -6.835,0.879 -9.813,2.313 z m 46.188,57.781 c 6.263,0 11.343,5.081 11.343,11.343 0,6.263 -5.08,11.313 -11.343,11.313 -6.263,0 -11.344,-5.05 -11.344,-11.313 0,-6.262 5.081,-11.343 11.344,-11.343 z m -62.125,64 c 6.263,0 11.343,5.081 11.344,11.343 0,6.263 -5.081,11.313 -11.344,11.313 -6.263,0 -11.344,-5.05 -11.344,-11.313 0,-6.262 5.081,-11.343 11.344,-11.343 z m -35.782,139.593 c 6.263,0 11.344,5.081 11.344,11.344 0,6.263 -5.081,11.313 -11.344,11.313 -6.262,0 -11.343,-5.05 -11.343,-11.313 0,-6.263 5.081,-11.344 11.343,-11.344 z"
   fill="#ffffff"
   fill-rule="nonzero"
   opacity="1"
   stroke="none"
   id="path11" />
</g>
</svg>

<?xml version="1.0" encoding="UTF-8" standalone="no"?>
<!-- Created with Vectornator (http://vectornator.io/) -->

<svg
   height="100%"
   stroke-miterlimit="10"
   style="fill-rule:nonzero;clip-rule:evenodd;stroke-linecap:round;stroke-linejoin:round;"
   version="1.1"
   viewBox="0 0 841.995 595.35"
   width="100%"
   xml:space="preserve"
   id="svg14"
   sodipodi:docname="Logo_cb_rose.svg"
   inkscape:export-filename="/home/varoquan/Projects/research/grants/2023-ANR-SECRETS/website/assets/img/avatar-icon.png"
   inkscape:export-xdpi="180"
   inkscape:export-ydpi="180"
   inkscape:version="1.1.2 (0a00cf5339, 2022-02-04)"
   xmlns:inkscape="http://www.inkscape.org/namespaces/inkscape"
   xmlns:sodipodi="http://sodipodi.sourceforge.net/DTD/sodipodi-0.dtd"
   xmlns="http://www.w3.org/2000/svg"
   xmlns:svg="http://www.w3.org/2000/svg"
   xmlns:vectornator="http://vectornator.io"><sodipodi:namedview
   id="namedview16"
   pagecolor="#ffffff"
   bordercolor="#666666"
   borderopacity="1.0"
   inkscape:pageshadow="2"
   inkscape:pageopacity="0.0"
   inkscape:pagecheckerboard="0"
   showgrid="false"
   inkscape:zoom="1.4663643"
   inkscape:cx="219.59073"
   inkscape:cy="297.675"
   inkscape:window-width="3770"
   inkscape:window-height="2089"
   inkscape:window-x="70"
   inkscape:window-y="34"
   inkscape:window-maximized="1"
   inkscape:current-layer="svg14" />
<defs
   id="defs2" />
<g
   id="Calque-2"
   vectornator:layerName="Calque 2">
<path
   d="M432.344 24.0312C414.179 24.0313 396.016 28.0295 382.156 36.0312L227.375 125.406C199.656 141.41 177.188 180.306 177.188 212.312L177.188 391.031C177.188 399.113 178.631 407.642 181.219 416.125C188.421 439.731 204.599 462.884 223.719 475.531C221.181 465.791 219.719 456.091 219.719 446.812L219.719 359.75C219.719 315.991 250.447 262.786 288.344 240.906L363.719 197.375C401.616 175.495 463.072 175.495 500.969 197.375L576.344 240.906C614.241 262.786 644.969 315.991 644.969 359.75L644.969 446.812C644.969 456.052 643.517 465.708 641 475.406C666.966 458.198 687.5 421.581 687.5 391.031L687.5 212.312C687.5 180.306 665.031 141.41 637.312 125.406L482.531 36.0312C468.672 28.0295 450.509 24.0312 432.344 24.0312Z"
   fill="#370316"
   fill-rule="nonzero"
   opacity="1"
   stroke="#154c2b"
   stroke-linecap="butt"
   stroke-linejoin="round"
   stroke-width="0.1"
   id="path4" />
<path
   d="M432.344 180.969C407.505 180.969 382.667 186.435 363.719 197.375L288.344 240.906C250.447 262.786 219.719 315.991 219.719 359.75L219.719 446.812C219.719 451.452 220.099 456.198 220.781 461C221.464 465.802 222.45 470.661 223.719 475.531C224.939 476.339 226.131 477.251 227.375 477.969L228.906 478.844C240.763 448.282 262.924 419.489 288.344 404.812L363.719 361.312C401.616 339.433 463.072 339.433 500.969 361.312L576.344 404.812C601.764 419.489 623.924 448.282 635.781 478.844L637.312 477.969C638.575 477.24 639.761 476.227 641 475.406C643.517 465.708 644.969 456.052 644.969 446.812L644.969 359.75C644.969 315.991 614.241 262.786 576.344 240.906L500.969 197.375C482.02 186.435 457.182 180.969 432.344 180.969Z"
   fill="#7d193f"
   fill-rule="nonzero"
   opacity="1"
   stroke="#31773e"
   stroke-linecap="butt"
   stroke-linejoin="round"
   stroke-width="0.1"
   id="path6" />
<path
   d="M432.344 344.906C419.926 344.906 407.507 346.273 395.824 349.007C384.14 351.741 373.193 355.843 363.719 361.312L326.031 383.062L288.344 404.812C275.634 412.151 263.739 423.018 253.539 435.871C243.339 448.724 234.835 463.563 228.906 478.844L305.531 523.078L382.156 567.312C393.801 574.036 408.461 577.893 423.606 578.927C438.751 579.96 454.381 578.169 467.969 573.594C470.553 572.724 473.086 571.793 475.527 570.76C477.968 569.726 480.317 568.591 482.531 567.312L559.156 523.078L635.781 478.844C629.853 463.563 621.348 448.724 611.149 435.871C600.949 423.018 589.054 412.151 576.344 404.812L538.656 383.062L500.969 361.312C491.495 355.843 480.547 351.741 468.864 349.007C457.18 346.273 444.761 344.906 432.344 344.906Z"
   fill="#d26e93"
   fill-rule="nonzero"
   opacity="1"
   stroke="#4ebc62"
   stroke-linecap="butt"
   stroke-linejoin="round"
   stroke-width="0.1"
   id="path8" />
</g>
<g
   id="Calque-1"
   vectornator:layerName="Calque 1">
<path
   d="M430.094 40.0625C417.568 40.0625 407.406 50.1929 407.406 62.7188C407.406 72.8264 414.082 81.2872 423.219 84.2188L422.844 180L404.031 149.781L348.531 149.844L319.25 135.688C319.388 134.675 319.531 133.676 319.531 132.625C319.531 120.099 309.37 109.969 296.844 109.969C284.318 109.969 274.156 120.099 274.156 132.625C274.156 145.151 284.318 155.312 296.844 155.312C303.41 155.312 309.294 152.493 313.438 148.031L344.562 163.25L396.312 163.938L422.469 204.375L421.781 510.312L422.125 510.375C413.018 513.316 406.375 521.757 406.375 531.844C406.375 544.37 416.537 554.531 429.062 554.531C441.588 554.531 451.75 544.37 451.75 531.844C451.75 521.741 445.099 513.302 435.969 510.375L436.156 224.594L469.219 188.031L544.531 187.219L573.219 156.906C576.307 158.481 579.734 159.469 583.438 159.469C595.963 159.469 606.125 149.307 606.125 136.781C606.125 124.255 595.963 114.125 583.438 114.125C570.912 114.125 560.75 124.255 560.75 136.781C560.75 140.643 561.796 144.222 563.5 147.406L538.031 173.812L515.25 173.625L539.719 122.5C545.905 122.411 550.906 117.426 550.906 111.219C550.906 104.956 545.825 99.875 539.562 99.875C533.3 99.875 528.219 104.956 528.219 111.219C528.219 113.206 528.882 114.973 529.781 116.594L519.5 138.875L479.531 119.719C479.574 119.319 479.781 118.974 479.781 118.562C479.781 112.3 474.7 107.219 468.438 107.219C462.175 107.219 457.094 112.3 457.094 118.562C457.094 124.825 462.175 129.875 468.438 129.875C470.068 129.875 471.598 129.523 473 128.906L514.469 148.469L504.25 173.5L462.812 174.438L436.438 204.281L436.625 84.3438C445.957 81.5299 452.781 72.9655 452.781 62.7188C452.781 50.1929 442.619 40.0625 430.094 40.0625ZM430.094 52.25C436.357 52.25 441.438 57.3308 441.438 63.5938C441.438 69.8567 436.357 74.9063 430.094 74.9062C423.831 74.9062 418.75 69.8567 418.75 63.5938C418.75 57.3308 423.831 52.25 430.094 52.25ZM296.844 122.156C303.107 122.156 308.187 127.237 308.188 133.5C308.188 139.763 303.107 144.812 296.844 144.812C290.581 144.812 285.5 139.763 285.5 133.5C285.5 127.237 290.581 122.156 296.844 122.156ZM583.438 126.312C589.7 126.312 594.781 131.393 594.781 137.656C594.781 143.919 589.7 148.969 583.438 148.969C577.175 148.969 572.094 143.919 572.094 137.656C572.094 131.393 577.175 126.312 583.438 126.312ZM429.062 521.375C435.325 521.375 440.406 526.456 440.406 532.719C440.406 538.982 435.325 544.031 429.062 544.031C422.8 544.031 417.719 538.982 417.719 532.719C417.719 526.456 422.8 521.375 429.062 521.375ZM260.281 164.938L223.531 191.781C219.659 188.711 214.828 186.781 209.5 186.781C196.974 186.781 186.812 196.912 186.812 209.438C186.812 221.963 196.974 232.125 209.5 232.125C222.026 232.125 232.188 221.963 232.188 209.438C232.188 207.214 231.753 205.123 231.156 203.094L262.688 180.281L320.594 198.656L335.094 219.312L301.625 239.906C299.943 238.919 298.091 238.219 296 238.219C289.737 238.219 284.656 243.3 284.656 249.562C284.656 255.825 289.737 260.875 296 260.875C302.218 260.875 307.24 255.888 307.312 249.688L341.094 229.812L356.594 252.969L356.25 291.219L243.344 283.5L210.688 329.656C208.598 329.023 206.422 328.594 204.125 328.594C191.599 328.594 181.438 338.724 181.438 351.25C181.437 363.776 191.599 373.937 204.125 373.938C216.651 373.937 226.813 363.776 226.812 351.25C226.813 346.113 225.036 341.422 222.156 337.625L249.969 298.25L285.906 300.469L258.188 356.188C258.166 356.187 258.146 356.187 258.125 356.188C251.862 356.188 246.781 361.268 246.781 367.531C246.781 373.794 251.862 378.844 258.125 378.844C264.388 378.844 269.469 373.794 269.469 367.531C269.469 365.03 268.466 362.844 267.094 360.969L274.562 347L307.344 361.25C308.025 366.858 312.611 371.25 318.406 371.25C324.669 371.25 329.75 366.2 329.75 359.938C329.75 353.675 324.669 348.594 318.406 348.594C315.959 348.594 313.823 349.525 311.969 350.844L280.031 336.844L297.469 302.812L356.781 306L357.094 514.062L331.812 492.406C333.25 489.428 334.125 486.12 334.125 482.594C334.125 470.068 323.963 459.938 311.438 459.938C298.912 459.938 288.75 470.068 288.75 482.594C288.75 495.12 298.912 505.281 311.438 505.281C315.414 505.281 319.093 504.173 322.344 502.375L370.688 544.031L370.594 438.875L370.406 248.438L328.969 186.875L260.281 164.938ZM209.5 198.125C215.763 198.125 220.844 203.206 220.844 209.469C220.844 215.732 215.763 220.781 209.5 220.781C203.237 220.781 198.156 215.732 198.156 209.469C198.156 203.206 203.237 198.125 209.5 198.125ZM204.125 339.938C210.388 339.938 215.469 345.018 215.469 351.281C215.469 357.544 210.388 362.594 204.125 362.594C197.862 362.594 192.781 357.544 192.781 351.281C192.781 345.018 197.862 339.937 204.125 339.938ZM311.438 471.281C317.7 471.281 322.781 476.362 322.781 482.625C322.781 488.888 317.7 493.937 311.438 493.938C305.175 493.938 300.094 488.888 300.094 482.625C300.094 476.362 305.175 471.281 311.438 471.281ZM613.281 215.188L546.281 215.375L500.688 273.719L500.469 542.594L548.375 506C552.097 508.672 556.633 510.281 561.562 510.281C574.089 510.281 584.25 500.12 584.25 487.594C584.25 475.067 574.089 464.937 561.562 464.938C549.036 464.938 538.875 475.067 538.875 487.594C538.875 490.394 539.447 493.055 540.375 495.531L513.688 515.625L514.812 412.375L558.375 417.75C560.413 420.765 563.675 422.875 567.594 422.875C573.857 422.875 578.938 417.826 578.938 411.562C578.938 405.299 573.857 400.219 567.594 400.219C563.558 400.219 560.199 402.449 558.188 405.625L514.375 400.281L514.688 369.219L576.781 358.125C580.513 365.535 588.107 370.687 596.969 370.688C609.495 370.687 619.625 360.526 619.625 348C619.625 335.474 609.495 325.312 596.969 325.312C586.067 325.312 576.991 333.029 574.812 343.281L574.969 343.25C574.959 343.3 574.978 343.356 574.969 343.406L514.562 354.156L514.156 279.125L552.688 228.688L606.75 228.688L639.844 273.094C637.948 276.404 636.781 280.19 636.781 284.281C636.781 296.808 646.942 306.969 659.469 306.969C671.995 306.969 682.156 296.808 682.156 284.281C682.156 271.755 671.995 261.625 659.469 261.625C655.942 261.625 652.634 262.504 649.656 263.938L613.281 215.188ZM659.469 272.969C665.732 272.969 670.812 278.05 670.812 284.312C670.812 290.575 665.732 295.625 659.469 295.625C653.206 295.625 648.125 290.575 648.125 284.312C648.125 278.05 653.206 272.969 659.469 272.969ZM597.344 336.969C603.607 336.969 608.687 342.05 608.688 348.312C608.688 354.575 603.607 359.625 597.344 359.625C591.081 359.625 586 354.575 586 348.312C586 342.05 591.081 336.969 597.344 336.969ZM561.562 476.562C567.825 476.562 572.906 481.643 572.906 487.906C572.906 494.169 567.825 499.219 561.562 499.219C555.3 499.219 550.219 494.169 550.219 487.906C550.219 481.643 555.3 476.562 561.562 476.562Z"
   fill="#ffffff"
   fill-rule="nonzero"
   opacity="1"
   stroke="none"
   id="path11" />
</g>
</svg>
